!!!COM: Music21
!!!OTL: jig_Betsys-Delight
!!!OMV: jig_Betsys-Delight
**kern
*clefG2
*k[]
*M6/8
=1
4d
8e
8fL
8e
8dJ
=
8aL
8dd
8eeJ
8ccL
8a
8gJ
=
8fL
8a
8ddJ
8ffL
8ee
8ddJ
=
8ccL
8a
8gJ
8eL
8c
8eJ
=
8dL
8A
8dJ
8fL
8e
8dJ
=
8ddL
8cc
8eeJ
8ddL
8cc
8aJ
!!linebreak:original
=
8gL
8e
8gJ
8ccL
8b
8aJ
=
8gL
8e
8cJ
4d
8A
=||
*M6/8
4d
8e
8fL
8e
8dJ
=
8aL
8dd
8eeJ
8ccL
8a
8gJ
=
8fL
8a
8ddJ
8ffL
8ee
8ddJ
=
8ccL
8a
8gJ
8eL
8c
8eJ
!!linebreak:original
=
8dL
8A
8dJ
8fL
8e
8dJ
=
8ddL
8cc
8eeJ
8ddL
8cc
8aJ
=
8gL
8e
8gJ
8ccL
8b
8aJ
=
8gL
8e
8cJ
4d
8cc
=||
8aL
8dd
8ddJ
8ddL
8cc
8aJ
=
8ccL
8ff
8eeJ
8ddL
8cc
8aJ
=
8gL
8e
8gJ
8ccL
8b
8aJ
!!linebreak:original
=
8gL
8e
8gJ
8ccL
8cc
8bJ
=
8aL
8dd
8eeJ
8ffL
8ee
8ddJ
=
8ggL
8ff
8eeJ
8ddL
8cc
8aJ
=
8fL
16aL
16bJ
8ccJ
8ddL
8cc
8aJ
=
8gL
8e
8cJ
4d
8cc
=||
*M6/8
4d
8e
8fL
8e
8dJ
!!linebreak:original
=
8aL
8dd
8eeJ
8ccL
8a
8gJ
=
8fL
8a
8ddJ
8ffL
8ee
8ddJ
=
8ccL
8a
8gJ
8eL
8c
8eJ
=
8dL
8A
8dJ
8fL
8e
8dJ
=
8ddL
8cc
8eeJ
8ddL
8cc
8aJ
=
8gL
8e
8gJ
8ccL
8b
8aJ
!!linebreak:original
=
8gL
8e
8cJ
4d
8A
=||
*M6/8
4d
8e
8fL
8e
8dJ
=
8aL
8dd
8eeJ
8ccL
8a
8gJ
=
8fL
8a
8ddJ
8ffL
8ee
8ddJ
=
8ccL
8a
8gJ
8eL
8c
8eJ
=
8dL
8A
8dJ
8fL
8e
8dJ
!!linebreak:original
=
8ddL
8cc
8eeJ
8ddL
8cc
8aJ
=
8gL
8e
8gJ
8ccL
8b
8aJ
=
8gL
8e
8cJ
4d
8cc
=||
8aL
8dd
8ddJ
8ddL
8cc
8aJ
=
8ccL
8ff
8eeJ
8ddL
8cc
8aJ
=
8gL
8e
8gJ
8ccL
8b
8aJ
=
8gL
8e
8gJ
8ccL
8cc
8bJ
!!linebreak:original
=
8aL
8dd
8eeJ
8ffL
8ee
8ddJ
=
8ggL
8ff
8eeJ
8ddL
8cc
8aJ
=
8fL
16aL
16bJ
8ccJ
8ddL
8cc
8aJ
=
8gL
8e
8cJ
8dL
8f
8eJ
=||
*-
